X:4
T:Calliope House
M:6/8
K:D
ABc |: dAA fAA| eAA fed| Bee e2 d| efd BdB|
ABF A2 F| A2 B2 d e|1 ~f2 f fed | e3 ABc :|
|2 faf edB | d3 efg || ~a3 faa| eaa faa|
~g3 fgf| efe edB|A2 F ABF| A3 B d e |
|1 fef fed|e3 efg :|2 fef edB| d3 ||
